packages/core/src/svgs/glmr.svg

<svg width="24" height="24" viewBox="0 0 24 24" fill="none" xmlns="http://www.w3.org/2000/svg">
<g clip-path="url(#clip0_31_10843)">
<path d="M0 0H24V24H0V0Z" fill="url(#paint0_linear_31_10843)"/>
<path d="M8.14307 9.98562C8.14867 9.34402 8.2806 8.7098 8.53132 8.11918C8.78204 7.52856 9.14664 6.99311 9.60431 6.5434C10.062 6.09369 10.6037 5.73854 11.1987 5.49822C11.7936 5.2579 12.43 5.13711 13.0716 5.14277C13.7132 5.13711 14.3497 5.2579 14.9446 5.49822C15.5395 5.73854 16.0813 6.09369 16.539 6.5434C16.9966 6.99311 17.3612 7.52856 17.612 8.11918C17.8627 8.7098 17.9946 9.34402 18.0002 9.98562C18.0002 10.0652 17.9686 10.1415 17.9123 10.1978C17.8561 10.254 17.7798 10.2856 17.7002 10.2856H8.44307C8.3635 10.2856 8.2872 10.254 8.23093 10.1978C8.17467 10.1415 8.14307 10.0652 8.14307 9.98562Z" fill="#53CBC9"/>
<path d="M6.85728 11.5716C6.85728 11.3359 7.01585 11.1431 7.213 11.1431H18.5016C18.6987 11.1431 18.8573 11.3359 18.8573 11.5716C18.8573 11.8074 18.6987 12.0002 18.5016 12.0002H7.213C7.01585 12.0002 6.85728 11.8074 6.85728 11.5716ZM4.71443 12.8574C4.71443 12.6216 4.87728 12.4288 5.07443 12.4288H13.3544C13.5516 12.4288 13.7144 12.6216 13.7144 12.8574C13.7144 13.0931 13.5516 13.2859 13.3544 13.2859H5.07443C4.87728 13.2859 4.71443 13.0931 4.71443 12.8574ZM7.21728 13.7145C7.02014 13.7145 6.85728 13.9074 6.85728 14.1431C6.85728 14.3788 7.02014 14.5716 7.21728 14.5716H17.2116C17.4087 14.5716 17.5716 14.3788 17.5716 14.1431C17.5716 13.9074 17.4087 13.7145 17.2116 13.7145H7.21728ZM5.143 15.4288C5.143 15.1931 5.31014 15.0002 5.51157 15.0002H9.48871C9.69014 15.0002 9.85728 15.1931 9.85728 15.4288C9.85728 15.6645 9.69014 15.8574 9.48871 15.8574H5.51157C5.31014 15.8574 5.143 15.6645 5.143 15.4288ZM12.3473 16.2859C12.1544 16.2859 12.0001 16.4788 12.0001 16.7145C12.0001 16.9502 12.1544 17.1431 12.3473 17.1431H17.2287C17.4216 17.1431 17.5759 16.9502 17.5759 16.7145C17.5759 16.4788 17.4216 16.2859 17.2287 16.2859H12.343H12.3473ZM9.00014 18.0002C9.00014 17.7645 9.15442 17.5716 9.34728 17.5716H14.2287C14.4216 17.5716 14.5759 17.7645 14.5759 18.0002C14.5759 18.2359 14.4216 18.4288 14.2287 18.4288H9.343C9.15014 18.4288 8.99585 18.2359 8.99585 18.0002H9.00014ZM10.6501 15.0002C10.4487 15.0002 10.2859 15.1931 10.2859 15.4288C10.2859 15.6645 10.4487 15.8574 10.6501 15.8574H18.9216C19.123 15.8574 19.2859 15.6645 19.2859 15.4288C19.2859 15.1931 19.123 15.0002 18.9216 15.0002H10.6501ZM5.57157 11.5716C5.57157 11.458 5.61672 11.349 5.69709 11.2686C5.77747 11.1882 5.88648 11.1431 6.00014 11.1431C6.1138 11.1431 6.22281 11.1882 6.30319 11.2686C6.38356 11.349 6.42871 11.458 6.42871 11.5716C6.42871 11.6853 6.38356 11.7943 6.30319 11.8747C6.22281 11.9551 6.1138 12.0002 6.00014 12.0002C5.88648 12.0002 5.77747 11.9551 5.69709 11.8747C5.61672 11.7943 5.57157 11.6853 5.57157 11.5716ZM3.85728 12.4288C3.74362 12.4288 3.63461 12.4739 3.55424 12.5543C3.47386 12.6347 3.42871 12.7437 3.42871 12.8574C3.42871 12.971 3.47386 13.08 3.55424 13.1604C3.63461 13.2408 3.74362 13.2859 3.85728 13.2859C3.97095 13.2859 4.07996 13.2408 4.16033 13.1604C4.2407 13.08 4.28585 12.971 4.28585 12.8574C4.28585 12.7437 4.2407 12.6347 4.16033 12.5543C4.07996 12.4739 3.97095 12.4288 3.85728 12.4288ZM5.57157 14.1431C5.57157 14.0294 5.61672 13.9204 5.69709 13.84C5.77747 13.7596 5.88648 13.7145 6.00014 13.7145C6.1138 13.7145 6.22281 13.7596 6.30319 13.84C6.38356 13.9204 6.42871 14.0294 6.42871 14.1431C6.42871 14.2567 6.38356 14.3657 6.30319 14.4461C6.22281 14.5265 6.1138 14.5716 6.00014 14.5716C5.88648 14.5716 5.77747 14.5265 5.69709 14.4461C5.61672 14.3657 5.57157 14.2567 5.57157 14.1431ZM4.28585 15.0002C4.17219 15.0002 4.06318 15.0454 3.98281 15.1257C3.90244 15.2061 3.85728 15.3151 3.85728 15.4288C3.85728 15.5424 3.90244 15.6515 3.98281 15.7318C4.06318 15.8122 4.17219 15.8574 4.28585 15.8574C4.39952 15.8574 4.50853 15.8122 4.5889 15.7318C4.66927 15.6515 4.71443 15.5424 4.71443 15.4288C4.71443 15.3151 4.66927 15.2061 4.5889 15.1257C4.50853 15.0454 4.39952 15.0002 4.28585 15.0002ZM10.7144 16.7145C10.7144 16.6008 10.7596 16.4918 10.84 16.4114C10.9203 16.3311 11.0293 16.2859 11.143 16.2859C11.2567 16.2859 11.3657 16.3311 11.446 16.4114C11.5264 16.4918 11.5716 16.6008 11.5716 16.7145C11.5716 16.8282 11.5264 16.9372 11.446 17.0175C11.3657 17.0979 11.2567 17.1431 11.143 17.1431C11.0293 17.1431 10.9203 17.0979 10.84 17.0175C10.7596 16.9372 10.7144 16.8282 10.7144 16.7145ZM8.143 17.5716C8.02933 17.5716 7.92032 17.6168 7.83995 17.6972C7.75958 17.7775 7.71442 17.8865 7.71442 18.0002C7.71442 18.1139 7.75958 18.2229 7.83995 18.3033C7.92032 18.3836 8.02933 18.4288 8.143 18.4288C8.25666 18.4288 8.36567 18.3836 8.44604 18.3033C8.52642 18.2229 8.57157 18.1139 8.57157 18.0002C8.57157 17.8865 8.52642 17.7775 8.44604 17.6972C8.36567 17.6168 8.25666 17.5716 8.143 17.5716Z" fill="#CB1F7A"/>
</g>
<defs>
<linearGradient id="paint0_linear_31_10843" x1="12" y1="0" x2="12" y2="24" gradientUnits="userSpaceOnUse">
<stop stop-color="#3B1C57"/>
<stop offset="1" stop-color="#200F31"/>
</linearGradient>
<clipPath id="clip0_31_10843">
<rect width="24" height="24" fill="white"/>
</clipPath>
</defs>
</svg>

<svg xmlns="http://www.w3.org/2000/svg" width="24" height="24" fill="none" viewBox="0 0 24 24"><g clip-path="url(#a)"><path fill="url(#b)" d="M0 0h24v24H0z"/><path fill="#53CBC9" d="M8.143 9.986a4.886 4.886 0 0 1 4.929-4.843A4.886 4.886 0 0 1 18 9.986a.3.3 0 0 1-.3.3H8.443a.3.3 0 0 1-.3-.3"/><path fill="#CB1F7A" d="M6.857 11.572c0-.236.159-.429.356-.429h11.289c.197 0 .355.193.355.429 0 .235-.158.428-.355.428H7.213c-.197 0-.356-.193-.356-.428m-2.143 1.285c0-.235.163-.428.36-.428h8.28c.198 0 .36.193.36.428 0 .236-.162.429-.36.429h-8.28c-.197 0-.36-.193-.36-.429m2.503.857c-.197 0-.36.193-.36.43 0 .235.163.428.36.428h9.995c.197 0 .36-.193.36-.429s-.163-.429-.36-.429zM5.143 15.43c0-.236.167-.429.369-.429h3.977c.201 0 .368.193.368.429s-.167.428-.368.428H5.512c-.202 0-.369-.192-.369-.428m7.204.857c-.193 0-.347.193-.347.428 0 .236.154.43.347.43h4.882c.193 0 .347-.194.347-.43 0-.235-.154-.428-.347-.428h-4.886zM9 18c0-.235.154-.428.347-.428h4.882c.193 0 .347.193.347.428 0 .236-.154.429-.347.429H9.343c-.193 0-.347-.193-.347-.429zm1.65-3c-.201 0-.364.193-.364.429s.163.428.364.428h8.272c.201 0 .364-.192.364-.428S19.123 15 18.922 15zm-5.078-3.428a.429.429 0 1 1 .857 0 .429.429 0 0 1-.857 0m-1.715.857a.428.428 0 1 0 0 .857.428.428 0 0 0 0-.857m1.715 1.714a.429.429 0 1 1 .857 0 .429.429 0 0 1-.857 0M4.286 15a.429.429 0 1 0 0 .858.429.429 0 0 0 0-.858m6.428 1.715a.429.429 0 1 1 .858 0 .429.429 0 0 1-.858 0m-2.571.857a.429.429 0 1 0 0 .857.429.429 0 0 0 0-.857"/></g><defs><linearGradient id="b" x1="12" x2="12" y1="0" y2="24" gradientUnits="userSpaceOnUse"><stop stop-color="#3B1C57"/><stop offset="1" stop-color="#200F31"/></linearGradient><clipPath id="a"><path fill="#fff" d="M0 0h24v24H0z"/></clipPath></defs></svg>
